src/components/ButtonDeleteProject/delete.svg

<svg width="86" height="86" viewBox="0 0 86 86" fill="none" xmlns="http://www.w3.org/2000/svg">
<g filter="url(#filter0_d)">
<path fill-rule="evenodd" clip-rule="evenodd" d="M43 20C33.6112 20 26 27.6112 26 37C26 46.3888 33.6112 54 43 54C52.3888 54 60 46.3888 60 37C60 27.6112 52.3888 20 43 20ZM44.5554 28.8467H41.4559V29.3683H40.3364V28.7737C40.3364 28.1967 40.8056 27.7273 41.3823 27.7273H44.629C45.2057 27.7273 45.6749 28.1967 45.6747 28.7737V29.3683H44.5554V28.8467ZM48.2597 33.8034H37.7515C37.4636 33.8034 37.2369 34.0491 37.2601 34.3362L38.1386 45.1992C38.1876 45.8057 38.6934 46.2727 39.3011 46.2727H46.71C47.3177 46.2727 47.8235 45.8057 47.8725 45.1991L48.751 34.3362C48.7743 34.0491 48.5477 33.8034 48.2597 33.8034ZM40.2959 45.1141L40.2821 45.1148C40.275 45.115 40.2679 45.1152 40.2608 45.1152C39.9674 45.1152 39.721 44.8867 39.7028 44.5898L39.1523 35.6718C39.1333 35.3632 39.368 35.0977 39.6765 35.0787C39.9839 35.06 40.2506 35.2942 40.2696 35.6029L40.82 44.5209C40.8391 44.8295 40.6044 45.095 40.2959 45.1141ZM43.5716 44.5555C43.5716 44.8645 43.321 45.1151 43.0118 45.1151C42.7027 45.1151 42.4521 44.8645 42.4521 44.5555V35.6373C42.4521 35.3281 42.7027 35.0776 43.0118 35.0776C43.3208 35.0776 43.5716 35.3281 43.5716 35.6373V44.5555ZM46.859 35.6703L46.3333 44.5883C46.3159 44.8857 46.0692 45.1151 45.7751 45.1151C45.7641 45.1151 45.7529 45.1148 45.7418 45.1142C45.4332 45.0959 45.1977 44.8311 45.216 44.5225L45.7415 35.6043C45.7596 35.2957 46.0236 35.0603 46.333 35.0786C46.6416 35.0967 46.8771 35.3617 46.859 35.6703ZM49.8278 30.9742L50.1954 32.0761C50.2663 32.2885 50.174 32.5053 50.0019 32.6134C49.9318 32.6575 49.8486 32.684 49.7574 32.684H36.2541C36.1628 32.684 36.0797 32.6575 36.0096 32.6135C35.8374 32.5054 35.7451 32.2886 35.816 32.0761L36.1836 30.9742C36.2804 30.6837 36.5525 30.4878 36.8587 30.4878H49.1526C49.459 30.4878 49.7309 30.6837 49.8278 30.9742Z" fill="white"/>
</g>
<defs>
<filter id="filter0_d" x="0" y="0" width="86" height="86" filterUnits="userSpaceOnUse" color-interpolation-filters="sRGB">
<feFlood flood-opacity="0" result="BackgroundImageFix"/>
<feColorMatrix in="SourceAlpha" type="matrix" values="0 0 0 0 0 0 0 0 0 0 0 0 0 0 0 0 0 0 127 0"/>
<feOffset dy="6"/>
<feGaussianBlur stdDeviation="13"/>
<feColorMatrix type="matrix" values="0 0 0 0 0 0 0 0 0 0.0176944 0 0 0 0 0.379167 0 0 0 0.1 0"/>
<feBlend mode="normal" in2="BackgroundImageFix" result="effect1_dropShadow"/>
<feBlend mode="normal" in="SourceGraphic" in2="effect1_dropShadow" result="shape"/>
</filter>
</defs>
</svg>

<svg width="86" height="86" fill="none" xmlns="http://www.w3.org/2000/svg"><g filter="url(#filter0_d)"><path fill-rule="evenodd" clip-rule="evenodd" d="M43 20c-9.389 0-17 7.611-17 17s7.611 17 17 17 17-7.611 17-17-7.611-17-17-17zm1.555 8.847h-3.1v.521h-1.119v-.594c0-.577.47-1.047 1.046-1.047h3.247c.577 0 1.046.47 1.046 1.047v.594h-1.12v-.521zm3.705 4.956H37.752a.493.493 0 00-.492.533L38.14 45.2a1.167 1.167 0 001.162 1.074h7.409c.608 0 1.114-.467 1.163-1.074l.878-10.863a.493.493 0 00-.491-.533zm-7.964 11.311h-.014l-.021.001a.56.56 0 01-.558-.525l-.55-8.918a.56.56 0 111.117-.07l.55 8.919a.56.56 0 01-.524.593zm3.276-.558a.56.56 0 01-1.12 0v-8.919a.56.56 0 111.12 0v8.919zm3.287-8.886l-.526 8.918a.56.56 0 11-1.117-.066l.526-8.918a.559.559 0 111.117.066zm2.969-4.696l.367 1.102a.461.461 0 01-.438.608H36.254a.461.461 0 01-.438-.608l.368-1.102a.712.712 0 01.675-.486h12.294c.306 0 .578.196.675.486z" fill="#fff"/></g><defs><filter id="filter0_d" x="0" y="0" width="86" height="86" filterUnits="userSpaceOnUse" color-interpolation-filters="sRGB"><feFlood flood-opacity="0" result="BackgroundImageFix"/><feColorMatrix in="SourceAlpha" values="0 0 0 0 0 0 0 0 0 0 0 0 0 0 0 0 0 0 127 0"/><feOffset dy="6"/><feGaussianBlur stdDeviation="13"/><feColorMatrix values="0 0 0 0 0 0 0 0 0 0.0176944 0 0 0 0 0.379167 0 0 0 0.1 0"/><feBlend in2="BackgroundImageFix" result="effect1_dropShadow"/><feBlend in="SourceGraphic" in2="effect1_dropShadow" result="shape"/></filter></defs></svg>
